X: 13
T: Curlews, The
C: Josephine Keegan
Z: Erik-Fiddler
S: https://thesession.org/tunes/174#setting48759
R: reel
M: 4/4
L: 1/8
K: Bdor
|:fB B/B/B Bcde|fece agae|f/g/a ed cA A/A/A|GAce agbg|
fB B/B/B Bcde|fece agaf|~=g3 e ~f3 e|dBBA FB B/B/B:|
|:B/c/d cd BF F/F/F|DF F/F/F Bcdf|ecBc AE E/E/E|CEAc dfed|
cdcd BF F/F/F|DF F/F/F Bcdf|ecBA fcec|dcBA FB B/B/B:|

